svgs/sharp-solid/fishing-rod.svg

<svg xmlns="http://www.w3.org/2000/svg" viewBox="0 0 448 512"><!--! Font Awesome Pro 6.5.2 by @fontawesome - https://fontawesome.com License - https://fontawesome.com/license (Commercial License) Copyright 2024 Fonticons, Inc. --><path d="M284.6 0H288h64 24V24 136v24H328V136 48H291.4L88 106.1V288h40V512H0V288H40V88 69.9l17.4-5 224-64 3.2-.9zM256 344c0-76.8 64-136 96-152c32 16 96 75.2 96 152c0 32-16 80-64 112l32 40v16H288V496l32-40c-48-32-64-80-64-112zm128-32a24 24 0 1 0 -48 0 24 24 0 1 0 48 0z"/></svg>

<svg xmlns="http://www.w3.org/2000/svg" viewBox="0 0 448 512"><!--! Font Awesome Pro 6.6.0 by @fontawesome - https://fontawesome.com License - https://fontawesome.com/license (Commercial License) Copyright 2024 Fonticons, Inc. --><path d="M284.6 0L288 0l64 0 24 0 0 24 0 112 0 24-48 0 0-24 0-88-36.6 0L88 106.1 88 288l40 0 0 224L0 512 0 288l40 0L40 88l0-18.1 17.4-5 224-64 3.2-.9zM256 344c0-76.8 64-136 96-152c32 16 96 75.2 96 152c0 32-16 80-64 112l32 40 0 16-128 0 0-16 32-40c-48-32-64-80-64-112zm128-32a24 24 0 1 0 -48 0 24 24 0 1 0 48 0z"/></svg>
